X:3
T:Sketch #2a
T:Dorian in D (for Bb Clarinet)
M:3/4
L:1/4
Q:1/4=100
%%MIDI program 71 % Clarinet
%%MIDI deltaloudness 40
K:D Dorian transpose=-2
!p!(D>F A|D2 C|B,2C|D3)|(!<(!D>F A|B2c|!trill!d2e/c/|d3!<)!)|!ff!( !>(!d2c|B>A F/E/|D3!>)! )!p!||


